lg/webassembly.svg

<svg viewBox="0 0 256 256" version="1.1" xmlns="http://www.w3.org/2000/svg" preserveAspectRatio="xMidYMid" height="1em" width="1em">
  <g>
    <path d="M157.29009,0 L256,0 L256,255.997187 L0,255.997187 L0,0 L98.7099099,0 C98.6902219,0.458448693 98.6424083,0.911272248 98.6424083,1.37534608 C98.6424083,17.5898044 111.785542,30.7357504 128,30.7357504 C144.214458,30.7357504 157.360404,17.5898044 157.360404,1.37534608 C157.360404,0.911272248 157.312591,0.458448693 157.29009,0 Z M215.617139,228.599956 L233.215381,228.599956 L206.557855,137.967743 L179.804702,137.967743 L157.852604,228.599956 L174.910833,228.599956 L179.354691,208.419776 L209.840123,208.419776 L215.617139,228.599956 Z M122.217359,228.599956 L139.05902,228.599956 L160.667985,137.967743 L144.040079,137.967743 L130.804131,200.420831 L130.587563,200.420831 L118.018194,137.967743 L102.146869,137.967743 L88.1627774,199.658624 L87.9462096,199.658624 L76.3415513,137.967743 L59.3902,137.967743 L78.9206768,228.599956 L96.0857833,228.599956 L109.532674,166.909075 L109.749242,166.909075 L122.217359,228.599956 Z M190.000545,160.30882 L197.130407,160.30882 L205.632802,193.567445 L182.603489,193.567445 L190.000545,160.30882 Z" fill="#654FF0"/>
  </g>
</svg>

<svg viewBox="0 0 256 256" xmlns="http://www.w3.org/2000/svg" preserveAspectRatio="xMidYMid" height="1em" width="1em">
  <path d="M157.29 0H256v255.997H0V0h98.71c-.02.458-.068.911-.068 1.375 0 16.215 13.144 29.36 29.358 29.36s29.36-13.145 29.36-29.36c0-.464-.047-.917-.07-1.375Zm58.327 228.6h17.598l-26.657-90.632h-26.753L157.853 228.6h17.058l4.444-20.18h30.485l5.777 20.18Zm-93.4 0h16.842l21.609-90.632H144.04l-13.236 62.453h-.216l-12.57-62.453h-15.871l-13.984 61.69h-.217l-11.604-61.69H59.39L78.92 228.6h17.166l13.447-61.69h.216l12.468 61.69Zm67.784-68.291h7.13l8.502 33.258h-23.03l7.398-33.258Z" fill="#654FF0"/>
</svg>
